fs/content_view_gallery_20_regular.svg

<svg viewBox="0 0 20 20" fill="none" xmlns="http://www.w3.org/2000/svg" height="1em" width="1em">
  <path d="M6 6C5.44772 6 5 6.44772 5 7V9C5 9.55228 5.44772 10 6 10H9C9.55228 10 10 9.55228 10 9V7C10 6.44772 9.55228 6 9 6H6ZM6 7H9V9H6V7ZM5 11.5C5 11.2239 5.22386 11 5.5 11H9.5C9.77614 11 10 11.2239 10 11.5C10 11.7761 9.77614 12 9.5 12H5.5C5.22386 12 5 11.7761 5 11.5ZM5.5 13C5.22386 13 5 13.2239 5 13.5C5 13.7761 5.22386 14 5.5 14H9.5C9.77614 14 10 13.7761 10 13.5C10 13.2239 9.77614 13 9.5 13H5.5ZM3 6C3 4.34315 4.34315 3 6 3H14C15.6569 3 17 4.34315 17 6V14C17 15.6569 15.6569 17 14 17H6C4.34315 17 3 15.6569 3 14V6ZM11 16V4H6C4.89543 4 4 4.89543 4 6V14C4 15.1046 4.89543 16 6 16H11ZM14 16C15.1046 16 16 15.1046 16 14V13H12V16H14ZM16 7V6C16 4.89543 15.1046 4 14 4H12V7H16ZM16 12V8H12V12H16Z" fill="#212121"/>
</svg>

<svg viewBox="0 0 20 20" fill="none" xmlns="http://www.w3.org/2000/svg" height="1em" width="1em">
  <path d="M6 6a1 1 0 0 0-1 1v2a1 1 0 0 0 1 1h3a1 1 0 0 0 1-1V7a1 1 0 0 0-1-1H6Zm0 1h3v2H6V7Zm-1 4.5a.5.5 0 0 1 .5-.5h4a.5.5 0 0 1 0 1h-4a.5.5 0 0 1-.5-.5Zm.5 1.5a.5.5 0 0 0 0 1h4a.5.5 0 0 0 0-1h-4ZM3 6a3 3 0 0 1 3-3h8a3 3 0 0 1 3 3v8a3 3 0 0 1-3 3H6a3 3 0 0 1-3-3V6Zm8 10V4H6a2 2 0 0 0-2 2v8a2 2 0 0 0 2 2h5Zm3 0a2 2 0 0 0 2-2v-1h-4v3h2Zm2-9V6a2 2 0 0 0-2-2h-2v3h4Zm0 5V8h-4v4h4Z" fill="#212121"/>
</svg>
